X: 130
%
U:~=!turn!
T: Dainty Davie
C:
O:Scotland
B:Keith Norman MacDonald : "The Skye collection of the best reels & strathspeys extant" : 1887
Z:Ralph Palmer
R:Strathspey
M:C
L:1/8
K:D aeolian
d | {/d}c>B {/B}A>G F<D F2 | Fc A/B/c/A/ .F.c.A.f | {/d}c>B {/B}A>G F<D F2 | f>g a/g/f/e/ d2 f :| c | fafa fa-ag/f/ | egcg eg{/a}gf/e/ |
fafa fa-ag/f/ | ec {/a}gf/e/ d2 fc | fafa fa {/b}ag/f/ | egcg eg {/a}gf/e/ | f>g ag/a/ b/a/g/f/ f/e/d/c/ | d/e/f/g/ a/g/f/e/ d>~ef ||
|: g | aAA>G FD F2 | F>c A/B/c/A/ FcAf | {/d}c>B {/B}A>GFD Ff/g/ | (3afd (3ge^c d2 f :| c | fafa faag/f/ egcg eg {/a}gf/e/|
fafa fa-ag/f/ | ec a/g/f/e/ d2 f>c | fafa fa {/b}ag/f/ | egcg eg b/g/f/e/ | (f/e/).f/.g/ (a/f/).g/.a/ (b/a/).g/.f/ (f/e/).d/.c/ | d/e/f/g/ a/g/f/e/ d2 f |]


